X: 23724
T: Listmaker, The
R: reel
M: 4/4
K: Amixolydian
a2ae deg|e2 ed cde|a2ae def|gefd efg|
a2ae deg|e2 ed cde|eAea ged|1 dB=cA ^cde:|2 dBBG EFG||
A2ce edc|dffg gfe|A2 ce edc|dBBG EFG|
A2ce edc|dAdf gfe|Acce edc|1 d2dc d3:|2 d2dA efg||
a2ae aba|g2ge gag|f2fd ~f3|eAef gab|
a2ae aba|g2ge gag|f2fd ~f3|e2eA e3:|

